**kern	**silbe	**kern	**silbe	**harmony	**phrase	**leadinstrument	**rhyme	**timestamp	**harte
*ICvox	*	*ICvox	*	*M4/4	*	*	*	*	*M4/4
*VRlead	*	*VRharmonize	*	*	*	*	*	*	*
*Hstimme	*	*Nstimme	*	*	*	*	*	*	*
*g#:	*	*g#:	*	*g#:	*	*	*	*	*g#:
*M4/4	*	*M4/4	*	*	*	*	*	*	*
*clefG2	*	*clefG2	*	*	*	*	*	*	*
r;	.	r;	.	1r;	.	r	.	0	N.C.
=1	=1	=1	=1	=1	=1	=1	=1	=1	=1
*>Letter>A	*>Letter>A	*>Letter>A	*>Letter>A	*>Letter>A	*>Letter>A	*>Letter>A	*>Letter>A	*>Letter>A	*>Letter>A
*>Label>Intro	*>Label>Intro	*>Label>Intro	*>Label>Intro	*>Label>Intro	*>Label>Intro	*>Label>Intro	*>Label>Intro	*>Label>Intro	*>Label>Intro
1r	.	1r	.	1G#mm	newline	synth	.	0.325	G#:min7
=2	=2	=2	=2	=2	=2	=2	=2	=2	=2
1r	.	1r	.	1G#mm	.	synth	.	2.808	G#:min7
=3	=3	=3	=3	=3	=3	=3	=3	=3	=3
1r	.	1r	.	1F#M	.	synth	.	5.291	F#:maj/2
=4	=4	=4	=4	=4	=4	=4	=4	=4	=4
1r	.	1r	.	1F#M	.	synth	.	7.774	F#:maj/2
=5	=5	=5	=5	=5	=5	=5	=5	=5	=5
1r	.	1r	.	1G#mm	newline	synth	.	10.257	G#:min7
=6	=6	=6	=6	=6	=6	=6	=6	=6	=6
1r	.	1r	.	1G#mm	.	synth	.	12.717	G#:min7
=7	=7	=7	=7	=7	=7	=7	=7	=7	=7
1r	.	1r	.	1F#M	.	synth	.	15.176	F#:maj/2
=8	=8	=8	=8	=8	=8	=8	=8	=8	=8
2r	.	1r	.	1F#M	.	synth	.	17.635	F#:maj/2
4.r	.	.	.	.	.	.	.	.	.
8G#	You	.	.	.	.	.	.	.	.
=9	=9	=9	=9	=9	=9	=9	=9	=9	=9
*>Letter>A	*>Letter>A	*>Letter>A	*>Letter>A	*>Letter>A	*>Letter>A	*>Letter>A	*>Letter>A	*>Letter>A	*>Letter>A
*>Label>Verse	*>Label>Verse	*>Label>Verse	*>Label>Verse	*>Label>Verse	*>Label>Verse	*>Label>Verse	*>Label>Verse	*>Label>Verse	*>Label>Verse
8.d#	must	1r	.	1G#mm	newline	voice	A	20.094	G#:min7
8.c#	un-	.	.	.	.	.	.	.	.
8G#	-der-	.	.	.	.	.	.	.	.
8B	-stand	.	.	.	.	.	B	.	.
8G#	_	.	.	.	.	.	.	.	.
8G#	though	.	.	.	.	.	.	.	.
8B	the	.	.	.	.	.	.	.	.
=10	=10	=10	=10	=10	=10	=10	=10	=10	=10
8.d#	touch	1r	.	1G#mm	.	voice	A	22.555	G#:min7
8.c#	of	.	.	.	.	.	.	.	.
8G#	your	.	.	.	.	.	.	.	.
8B	hand	.	.	.	.	.	B	.	.
8G#	_	.	.	.	.	.	.	.	.
8G#	make	.	.	.	.	.	.	.	.
8B	my	.	.	.	.	.	.	.	.
=11	=11	=11	=11	=11	=11	=11	=11	=11	=11
8.c#	pulse	1r	.	1F#M	.	voice	.	25.015	F#:maj/2
8.f#	re-	.	.	.	.	.	.	.	.
16d#	-act	.	.	.	.	.	C	.	.
16c#	_	.	.	.	.	.	.	.	.
8d#	_	.	.	.	.	.	.	.	.
8r	.	.	.	.	.	.	.	.	.
4r	.	.	.	.	.	.	.	.	.
=12	=12	=12	=12	=12	=12	=12	=12	=12	=12
2r	.	1r	.	1F#M	.	voice	.	27.476	F#:maj/2
4r	.	.	.	.	.	.	.	.	.
8G#	That	.	.	.	.	.	.	.	.
8B	it's	.	.	.	.	.	.	.	.
=13	=13	=13	=13	=13	=13	=13	=13	=13	=13
8.d#	on-	1r	.	1G#mm	newline	voice	.	29.936	G#:min7
8c#	-ly	.	.	.	.	.	.	.	.
16B	the	.	.	.	.	.	.	.	.
8c#	_	.	.	.	.	.	.	.	.
8B	thrill	.	.	.	.	.	.	.	.
8G#	_	.	.	.	.	.	.	.	.
8r	.	.	.	.	.	.	.	.	.
8G#	of	.	.	.	.	.	.	.	.
=14	=14	=14	=14	=14	=14	=14	=14	=14	=14
8.d#	boy	1r	.	1G#mm	.	voice	.	32.365	G#:min7
8.c#	meet-	.	.	.	.	.	.	.	.
8G#	-ing	.	.	.	.	.	.	.	.
8B	girl	.	.	.	.	.	.	.	.
8G#	_	.	.	.	.	.	.	.	.
8G#	op-	.	.	.	.	.	.	.	.
8B	-po-	.	.	.	.	.	.	.	.
=15	=15	=15	=15	=15	=15	=15	=15	=15	=15
8.c#	-sites	1r	.	1F#M	.	voice	.	34.794	F#:maj/2
8.f#	at-	.	.	.	.	.	.	.	.
16d#	-tract	.	.	.	.	.	C	.	.
16c#	_	.	.	.	.	.	.	.	.
8d#	_	.	.	.	.	.	.	.	.
8r	.	.	.	.	.	.	.	.	.
8r	.	.	.	.	.	.	.	.	.
8G#	It's	.	.	.	.	.	.	.	.
=16	=16	=16	=16	=16	=16	=16	=16	=16	=16
*>Letter>B	*>Letter>B	*>Letter>B	*>Letter>B	*>Letter>B	*>Letter>B	*>Letter>B	*>Letter>B	*>Letter>B	*>Letter>B
*>Label>Prechorus	*>Label>Prechorus	*>Label>Prechorus	*>Label>Prechorus	*>Label>Prechorus	*>Label>Prechorus	*>Label>Prechorus	*>Label>Prechorus	*>Label>Prechorus	*>Label>Prechorus
8.B	phys-	1r	.	2EM	newline	voice	.	37.223	E:maj
8.c#	-i-	.	.	.	.	.	.	.	.
4c#	-cal	.	.	.	.	.	D	.	.
.	.	.	.	2F#M	.	voice	.	38.455	F#:maj
8d#	_	.	.	.	.	.	.	.	.
4r	.	.	.	.	.	.	.	.	.
=17	=17	=17	=17	=17	=17	=17	=17	=17	=17
2r	.	1r	.	1F#M	.	voice	.	39.686	F#:maj
4r	.	.	.	.	.	.	.	.	.
8d#	On-	.	.	.	.	.	.	.	.
8B	-ly	.	.	.	.	.	.	.	.
=18	=18	=18	=18	=18	=18	=18	=18	=18	=18
8.B	log-	1r	.	2EM	.	voice	.	42.149	E:maj
8.c#	-i-	.	.	.	.	.	.	.	.
4c#	-cal	.	.	.	.	.	D	.	.
.	.	.	.	2F#M	.	voice	.	43.381	F#:maj
16A#	_	.	.	.	.	.	.	.	.
16G#	_	.	.	.	.	.	.	.	.
8F#	_	.	.	.	.	.	.	.	.
8r	.	.	.	.	.	.	.	.	.
=19	=19	=19	=19	=19	=19	=19	=19	=19	=19
2r	.	1r	.	1F#M	.	voice	.	44.612	F#:maj
4r	.	.	.	.	.	.	.	.	.
8G#	You	.	.	.	.	.	.	.	.
8B	must	.	.	.	.	.	.	.	.
=20	=20	=20	=20	=20	=20	=20	=20	=20	=20
8.d#	try	1r	.	1EM	newline	voice	.	47.076	E:maj
8.c#	to	.	.	.	.	.	.	.	.
8c#	ig-	.	.	.	.	.	.	.	.
8B	-nore	.	.	.	.	.	E	.	.
16G#	_	.	.	.	.	.	.	.	.
16r	.	.	.	.	.	.	.	.	.
8G#	that	.	.	.	.	.	.	.	.
8B	it	.	.	.	.	.	.	.	.
=21	=21	=21	=21	=21	=21	=21	=21	=21	=21
8.g#	means	1r	.	1F#M	.	voice	.	49.528	F#:maj
8f#	more	.	.	.	.	.	E	.	.
8.g#	than	.	.	.	.	.	.	.	.
8f#	that	.	.	.	.	.	.	.	.
8r	.	.	.	.	.	.	.	.	.
8b	Oh	.	.	.	.	.	.	.	.
8a#	_	.	.	.	.	.	.	.	.
=22	=22	=22	=22	=22	=22	=22	=22	=22	=22
*>Letter>C	*>Letter>C	*>Letter>C	*>Letter>C	*>Letter>C	*>Letter>C	*>Letter>C	*>Letter>C	*>Letter>C	*>Letter>C
*>Label>Chorus	*>Label>Chorus	*>Label>Chorus	*>Label>Chorus	*>Label>Chorus	*>Label>Chorus	*>Label>Chorus	*>Label>Chorus	*>Label>Chorus	*>Label>Chorus
8g#	_	1r	.	2G#m	newline	voice	.	51.98	B:maj
8r	.	.	.	.	.	.	.	.	.
4b	What's	.	.	.	.	.	.	.	.
8a#	love	.	.	2F#M	.	voice	.	53.204	F#:maj
8g#	_	.	.	.	.	.	.	.	.
8f#	got	.	.	.	.	.	.	.	.
16d#	to	.	.	.	.	.	.	.	.
[16f#	do	.	.	.	.	.	.	.	.
=23	=23	=23	=23	=23	=23	=23	=23	=23	=23
8f#]	_	1r	.	2EM	.	voice	.	54.428	E:maj
8r	.	.	.	.	.	.	.	.	.
8f#	got	.	.	.	.	.	.	.	.
16d#	to	.	.	.	.	.	.	.	.
[16f#	do	.	.	.	.	.	.	.	.
16f#]	_	.	.	2F#M	.	voice	.	55.652	F#:maj
16f#	with	.	.	.	.	.	.	.	.
8f#	it?	.	.	.	.	.	.	.	.
4r	.	.	.	.	.	.	.	.	.
=24	=24	=24	=24	=24	=24	=24	=24	=24	=24
4r	.	1r	.	2G#m	.	voice	.	56.876	B:maj
8b	What's	.	.	.	.	.	.	.	.
8r	.	.	.	.	.	.	.	.	.
8a#	love	.	.	2F#M	.	voice	.	58.1	F#:maj
8g#	_	.	.	.	.	.	.	.	.
8r	.	.	.	.	.	.	.	.	.
16f#	but	.	.	.	.	.	.	.	.
16f#	a	.	.	.	.	.	.	.	.
=25	=25	=25	=25	=25	=25	=25	=25	=25	=25
8g#	se-	1r	.	2EM	.	voice	.	59.324	E:maj
8f#	-cond	.	.	.	.	.	.	.	.
8f#	hand	.	.	.	.	.	.	.	.
8g#	e-	.	.	.	.	.	.	.	.
4d#	-mo-	.	.	2F#M	.	voice	(F	60.548	F#:maj
16c#	-tion	.	.	.	.	.	f)	.	.
8.B	_	.	.	.	.	.	.	.	.
=26	=26	=26	=26	=26	=26	=26	=26	=26	=26
4r	.	1r	.	2G#m	newline	voice	.	61.772	B:maj
4b	What's	.	.	.	.	.	.	.	.
8a#	love	.	.	2F#M	.	voice	.	62.994	F#:maj
8g#	_	.	.	.	.	.	.	.	.
8f#	got	.	.	.	.	.	.	.	.
16d#	to	.	.	.	.	.	.	.	.
[16f#	do	.	.	.	.	.	.	.	.
=27	=27	=27	=27	=27	=27	=27	=27	=27	=27
8f#]	_	1r	.	2EM	.	voice	.	64.216	E:maj
8r	.	.	.	.	.	.	.	.	.
8f#	got	.	.	.	.	.	.	.	.
16d#	to	.	.	.	.	.	.	.	.
[16f#	do	.	.	.	.	.	.	.	.
16f#]	_	.	.	2F#M	.	voice	.	65.438	F#:maj
16f#	with	.	.	.	.	.	.	.	.
8f#	it?	.	.	.	.	.	.	.	.
4r	.	.	.	.	.	.	.	.	.
=28	=28	=28	=28	=28	=28	=28	=28	=28	=28
8.g#	Who	1r	.	2G#m	.	voice	.	66.66	B:maj
8.f#	needs	.	.	.	.	.	.	.	.
8d#	a	.	.	.	.	.	.	.	.
8.g#	heart	.	.	2F#M	.	voice	.	67.882	F#:maj
8.f#	when	.	.	.	.	.	.	.	.
16d#	a	.	.	.	.	.	.	.	.
16r	.	.	.	.	.	.	.	.	.
=29	=29	=29	=29	=29	=29	=29	=29	=29	=29
8.g#	heart	1r	.	2EM	.	voice	.	69.104	E:maj
8.f#	can	.	.	.	.	.	.	.	.
8d#	be	.	.	.	.	.	.	.	.
8.g#	bro-	.	.	2F#M	.	voice	(F	70.326	F#:maj
16f#	-ken?	.	.	.	.	.	f)	.	.
8d#	_	.	.	.	.	.	.	.	.
8G#	It	.	.	.	.	.	.	.	.
=30	=30	=30	=30	=30	=30	=30	=30	=30	=30
*>Letter>A	*>Letter>A	*>Letter>A	*>Letter>A	*>Letter>A	*>Letter>A	*>Letter>A	*>Letter>A	*>Letter>A	*>Letter>A
*>Label>Verse	*>Label>Verse	*>Label>Verse	*>Label>Verse	*>Label>Verse	*>Label>Verse	*>Label>Verse	*>Label>Verse	*>Label>Verse	*>Label>Verse
16B	may	1r	.	1G#mm	newline	voice	.	71.548	G#:min7
8d#	_	.	.	.	.	.	.	.	.
8.c#	seem	.	.	.	.	.	.	.	.
8G#	to	.	.	.	.	.	.	.	.
16B	you	.	.	.	.	.	G	.	.
16G#	_	.	.	.	.	.	.	.	.
8r	.	.	.	.	.	.	.	.	.
16G#	that	.	.	.	.	.	.	.	.
8.B	I'm	.	.	.	.	.	.	.	.
=31	=31	=31	=31	=31	=31	=31	=31	=31	=31
8.d#	act-	1r	.	1G#mm	.	voice	.	74.007	G#:min7
8c#	-ing	.	.	.	.	.	.	.	.
16B	con-	.	.	.	.	.	.	.	.
8c#	_	.	.	.	.	.	.	.	.
16B	-fused	.	.	.	.	.	G	.	.
8G#	_	.	.	.	.	.	.	.	.
16r	.	.	.	.	.	.	.	.	.
8G#	when	.	.	.	.	.	.	.	.
8B	you're	.	.	.	.	.	.	.	.
=32	=32	=32	=32	=32	=32	=32	=32	=32	=32
8.c#	close	1r	.	1F#M	.	voice	.	76.465	F#:maj/2
8.f#	to	.	.	.	.	.	.	.	.
16d#	me	.	.	.	.	.	.	.	.
16c#	_	.	.	.	.	.	.	.	.
4d#	_	.	.	.	.	.	.	.	.
4f#	_	.	.	.	.	.	.	.	.
=33	=33	=33	=33	=33	=33	=33	=33	=33	=33
2r	.	1r	.	1F#M	.	voice	.	78.923	F#:maj/2
4r	.	.	.	.	.	.	.	.	.
8G#	If	.	.	.	.	.	.	.	.
8B	I	.	.	.	.	.	.	.	.
=34	=34	=34	=34	=34	=34	=34	=34	=34	=34
8.d#	tend	1r	.	1G#mm	newline	voice	.	81.382	G#:min7
8c#	to	.	.	.	.	.	.	.	.
16B	look	.	.	.	.	.	.	.	.
8c#	_	.	.	.	.	.	.	.	.
16B	dazed	.	.	.	.	.	H	.	.
8.G#	_	.	.	.	.	.	.	.	.
8r	.	.	.	.	.	.	.	.	.
8G#	I	.	.	.	.	.	.	.	.
=35	=35	=35	=35	=35	=35	=35	=35	=35	=35
8.d#	read	1r	.	1G#mm	.	voice	.	83.231	G#:min7
8c#	it	.	.	.	.	.	.	.	.
16B	some	.	.	.	.	.	.	.	.
8c#	_	.	.	.	.	.	.	.	.
16B	place	.	.	.	.	.	H	.	.
16G#	_	.	.	.	.	.	.	.	.
8r	.	.	.	.	.	.	.	.	.
8G#	I've	.	.	.	.	.	.	.	.
8B	got	.	.	.	.	.	.	.	.
=36	=36	=36	=36	=36	=36	=36	=36	=36	=36
8.c#	cause	1r	.	1F#M	.	voice	.	85.081	F#:maj/2
8.f#	to	.	.	.	.	.	.	.	.
16d#	be	.	.	.	.	.	I	.	.
16c#	_	.	.	.	.	.	.	.	.
8d#	_	.	.	.	.	.	.	.	.
8r	.	.	.	.	.	.	.	.	.
8r	.	.	.	.	.	.	.	.	.
16G#	There's	.	.	.	.	.	.	.	.
16B	a	.	.	.	.	.	.	.	.
=37	=37	=37	=37	=37	=37	=37	=37	=37	=37
*>Letter>B	*>Letter>B	*>Letter>B	*>Letter>B	*>Letter>B	*>Letter>B	*>Letter>B	*>Letter>B	*>Letter>B	*>Letter>B
*>Label>Prechorus	*>Label>Prechorus	*>Label>Prechorus	*>Label>Prechorus	*>Label>Prechorus	*>Label>Prechorus	*>Label>Prechorus	*>Label>Prechorus	*>Label>Prechorus	*>Label>Prechorus
8.B	name	1r	.	2EM	newline	voice	.	88.78	E:maj
8.c#	for	.	.	.	.	.	.	.	.
4c#	it	.	.	.	.	.	J	.	.
.	.	.	.	2F#M	.	voice	.	90	F#:maj
8d#	_	.	.	.	.	.	.	.	.
4r	.	.	.	.	.	.	.	.	.
=38	=38	=38	=38	=38	=38	=38	=38	=38	=38
2r	.	1r	.	1F#M	.	voice	.	91.221	F#:maj
4r	.	.	.	.	.	.	.	.	.
8d#	There's	.	.	.	.	.	.	.	.
8B	a	.	.	.	.	.	.	.	.
=39	=39	=39	=39	=39	=39	=39	=39	=39	=39
8.B	phrase	1r	.	2EM	.	voice	.	93.662	E:maj
8.c#	to	.	.	.	.	.	.	.	.
4c#	fits	.	.	.	.	.	J	.	.
.	.	.	.	2F#M	.	voice	.	94.882	F#:maj
16A#	_	.	.	.	.	.	.	.	.
16G#	_	.	.	.	.	.	.	.	.
8.F#	_	.	.	.	.	.	.	.	.
16G#	_	.	.	.	.	.	.	.	.
=40	=40	=40	=40	=40	=40	=40	=40	=40	=40
2r	.	1r	.	1F#M	.	voice	.	96.103	F#:maj
4r	.	.	.	.	.	.	.	.	.
8G#	But	.	.	.	.	.	.	.	.
8B	what-	.	.	.	.	.	.	.	.
=41	=41	=41	=41	=41	=41	=41	=41	=41	=41
8.d#	-e-	1r	.	1EM	newline	voice	.	98.543	E:maj
8c#	-ver	.	.	.	.	.	.	.	.
8B	the	.	.	.	.	.	.	.	.
16G#	_	.	.	.	.	.	.	.	.
8.B	rea-	.	.	.	.	.	I	.	.
8G#	-son	.	.	.	.	.	.	.	.
16r	.	.	.	.	.	.	.	.	.
8B	you	.	.	.	.	.	.	.	.
=42	=42	=42	=42	=42	=42	=42	=42	=42	=42
8.g#	do	1r	.	1F#M	.	voice	.	101.014	F#:maj
8.f#	it	.	.	.	.	.	.	.	.
8g#	for	.	.	.	.	.	.	.	.
8f#	me	.	.	.	.	.	I	.	.
8r	.	.	.	.	.	.	.	.	.
8b	Oh	.	.	.	.	.	.	.	.
8a#	_	.	.	.	.	.	.	.	.
=43	=43	=43	=43	=43	=43	=43	=43	=43	=43
*>Letter>C	*>Letter>C	*>Letter>C	*>Letter>C	*>Letter>C	*>Letter>C	*>Letter>C	*>Letter>C	*>Letter>C	*>Letter>C
*>Label>Chorus	*>Label>Chorus	*>Label>Chorus	*>Label>Chorus	*>Label>Chorus	*>Label>Chorus	*>Label>Chorus	*>Label>Chorus	*>Label>Chorus	*>Label>Chorus
8g#	_	1r	.	2G#m	newline	voice	.	103.485	B:maj
8r	.	.	.	.	.	.	.	.	.
4b	What's	.	.	.	.	.	.	.	.
8a#	love	.	.	2F#M	.	voice	.	104.709	F#:maj
8g#	_	.	.	.	.	.	.	.	.
8f#	got	.	.	.	.	.	.	.	.
16d#	to	.	.	.	.	.	.	.	.
[16f#	do	.	.	.	.	.	.	.	.
=44	=44	=44	=44	=44	=44	=44	=44	=44	=44
8f#]	_	1r	.	2EM	.	voice	.	105.933	E:maj
8r	.	.	.	.	.	.	.	.	.
8f#	got	.	.	.	.	.	.	.	.
16d#	to	.	.	.	.	.	.	.	.
[16f#	do	.	.	.	.	.	.	.	.
16f#]	_	.	.	2F#M	.	voice	.	107.157	F#:maj
16f#	with	.	.	.	.	.	.	.	.
8f#	it?	.	.	.	.	.	.	.	.
4r	.	.	.	.	.	.	.	.	.
=45	=45	=45	=45	=45	=45	=45	=45	=45	=45
4r	.	1r	.	2G#m	.	voice	.	108.382	B:maj
4b	What's	.	.	.	.	.	.	.	.
8a#	love	.	.	2F#M	.	voice	.	109.606	F#:maj
8g#	_	.	.	.	.	.	.	.	.
8r	.	.	.	.	.	.	.	.	.
16f#	but	.	.	.	.	.	.	.	.
16f#	a	.	.	.	.	.	.	.	.
=46	=46	=46	=46	=46	=46	=46	=46	=46	=46
8g#	se-	1r	.	2G#m	.	voice	.	110.83	E:maj
8f#	-cond	.	.	.	.	.	.	.	.
8f#	hand	.	.	.	.	.	.	.	.
8g#	e-	.	.	.	.	.	.	.	.
4d#	-mo-	.	.	2F#M	.	voice	(F	112.054	F#:maj
16c#	-tion	.	.	.	.	.	f)	.	.
8.B	_	.	.	.	.	.	.	.	.
=47	=47	=47	=47	=47	=47	=47	=47	=47	=47
4r	.	1r	.	2G#m	newline	voice	.	113.279	B:maj
4b	What's	.	.	.	.	.	.	.	.
8a#	love	.	.	2F#M	.	voice	.	114.503	F#:maj
8g#	_	.	.	.	.	.	.	.	.
8f#	got	.	.	.	.	.	.	.	.
16d#	to	.	.	.	.	.	.	.	.
[16f#	do	.	.	.	.	.	.	.	.
=48	=48	=48	=48	=48	=48	=48	=48	=48	=48
8f#]	_	1r	.	2EM	.	voice	.	115.728	E:maj
8r	.	.	.	.	.	.	.	.	.
8f#	got	.	.	.	.	.	.	.	.
16d#	to	.	.	.	.	.	.	.	.
[16f#	do	.	.	.	.	.	.	.	.
16f#]	_	.	.	2F#M	.	voice	.	116.953	F#:maj
16f#	with	.	.	.	.	.	.	.	.
8f#	it?	.	.	.	.	.	.	.	.
4r	.	.	.	.	.	.	.	.	.
=49	=49	=49	=49	=49	=49	=49	=49	=49	=49
8.g#	Who	1r	.	2G#m	.	voice	.	118.177	B:maj
8.f#	needs	.	.	.	.	.	.	.	.
8d#	a	.	.	.	.	.	.	.	.
8.g#	heart	.	.	2F#M	.	voice	.	119.402	F#:maj
8f#	when	.	.	.	.	.	.	.	.
16d#	a	.	.	.	.	.	.	.	.
8r	.	.	.	.	.	.	.	.	.
=50	=50	=50	=50	=50	=50	=50	=50	=50	=50
8.g#	heart	1r	.	2EM	.	voice	.	120.627	E:maj
8.f#	can	.	.	.	.	.	.	.	.
8d#	be	.	.	.	.	.	.	.	.
4g#	bro-	.	.	2F#M	.	voice	(F	121.851	F#:maj
8f#	-ken?	.	.	.	.	.	f)	.	.
8d#	_	.	.	.	.	.	.	.	.
=51	=51	=51	=51	=51	=51	=51	=51	=51	=51
*>Letter>D	*>Letter>D	*>Letter>D	*>Letter>D	*>Letter>D	*>Letter>D	*>Letter>D	*>Letter>D	*>Letter>D	*>Letter>D
*>Label>Solo	*>Label>Solo	*>Label>Solo	*>Label>Solo	*>Label>Solo	*>Label>Solo	*>Label>Solo	*>Label>Solo	*>Label>Solo	*>Label>Solo
*C#:	*	*C#:	*	*C#:	*	*	*	*	*C#:
2.r	.	1r	.	2C#M	newline	harmonica	.	123.076	C#:maj
.	.	.	.	2G#M	.	harmonica	.	124.303	G#:maj
[4cc#	Huh	.	.	.	.	.	.	.	.
=52	=52	=52	=52	=52	=52	=52	=52	=52	=52
2cc#_	_	1r	.	2F#M	.	harmonica	.	125.53	F#:maj
8cc#]	_	.	.	2G#M	.	harmonica	.	126.757	G#:maj
16a#	_	.	.	.	.	.	.	.	.
16g#	_	.	.	.	.	.	.	.	.
4r	.	.	.	.	.	.	.	.	.
=53	=53	=53	=53	=53	=53	=53	=53	=53	=53
1r	.	1r	.	2C#M	.	harmonica	.	127.984	C#:maj
.	.	.	.	2G#M	.	harmonica	.	129.211	G#:maj
=54	=54	=54	=54	=54	=54	=54	=54	=54	=54
1r	.	1r	.	2F#M	.	harmonica	.	130.438	F#:maj
.	.	.	.	2G#M	.	harmonica	.	131.665	G#:maj
=55	=55	=55	=55	=55	=55	=55	=55	=55	=55
1r	.	1r	.	2C#M	newline	harmonica	.	132.892	C#:maj
.	.	.	.	2G#M	.	harmonica	.	134.118	G#:maj
=56	=56	=56	=56	=56	=56	=56	=56	=56	=56
1r	.	1r	.	2F#M	.	harmonica	.	135.345	F#:maj
.	.	.	.	2G#M	.	harmonica	.	136.571	G#:maj
=57	=57	=57	=57	=57	=57	=57	=57	=57	=57
1r	.	1r	.	2C#M	.	harmonica	.	137.797	C#:maj
.	.	.	.	2G#M	.	harmonica	.	139.024	G#:maj
=58	=58	=58	=58	=58	=58	=58	=58	=58	=58
*M2/4	*	*M2/4	*	*M2/4	*M2/4	*M2/4	*	*M2/4	*M2/4
2r	.	2r	.	2F#M	.	harmonica	.	140.25	F#:maj
=59	=59	=59	=59	=59	=59	=59	=59	=59	=59
*>Letter>E	*>Letter>E	*>Letter>E	*>Letter>E	*>Letter>E	*>Letter>E	*>Letter>E	*>Letter>E	*>Letter>E	*>Letter>E
*>Label>Bridge	*>Label>Bridge	*>Label>Bridge	*>Label>Bridge	*>Label>Bridge	*>Label>Bridge	*>Label>Bridge	*>Label>Bridge	*>Label>Bridge	*>Label>Bridge
*	*	*	*	*M4/4	*M4/4	*M4/4	*	*M4/4	*M4/4
4r	.	1r	.	1BM	newline	voice	.	141.476	B:maj/2
8f#	I've	.	.	.	.	.	.	.	.
8f#	been	.	.	.	.	.	.	.	.
8f#	ta-	.	.	.	.	.	.	.	.
8f#	-king	.	.	.	.	.	.	.	.
8f#	on	.	.	.	.	.	.	.	.
8f#	a	.	.	.	.	.	.	.	.
=60	=60	=60	=60	=60	=60	=60	=60	=60	=60
4g#	new	1r	.	1C#M	.	voice	.	143.927	C#:maj
4e#	di-	.	.	.	.	.	.	.	.
16e#	-rec-	.	.	.	.	.	(K	.	.
16d#	_	.	.	.	.	.	.	.	.
[8c#	-tion	.	.	.	.	.	k)	.	.
8.c#]	_	.	.	.	.	.	.	.	.
16d#	_	.	.	.	.	.	.	.	.
=61	=61	=61	=61	=61	=61	=61	=61	=61	=61
4r	.	1r	.	1BM	.	voice	.	146.377	B:maj/2
16r	.	.	.	.	.	.	.	.	.
16c#	But	.	.	.	.	.	.	.	.
8c#	I	.	.	.	.	.	.	.	.
8.a#	have	.	.	.	.	.	.	.	.
8g#	_	.	.	.	.	.	.	.	.
16g#	to	.	.	.	.	.	.	.	.
[8e#	say	.	.	.	.	.	H	.	.
=62	=62	=62	=62	=62	=62	=62	=62	=62	=62
16e#]	_	1r	.	1C#M	.	voice	.	148.827	C#:maj
16d#	_	.	.	.	.	.	.	.	.
4.c#	_	.	.	.	.	.	.	.	.
2r	.	.	.	.	.	.	.	.	.
=63	=63	=63	=63	=63	=63	=63	=63	=63	=63
4r	.	1r	.	1AM	newline	voice	.	151.278	A:maj
8e	I've	.	.	.	.	.	.	.	.
8e	been	.	.	.	.	.	.	.	.
8e	think-	.	.	.	.	.	.	.	.
16e	-ing	.	.	.	.	.	.	.	.
16e	a-	.	.	.	.	.	.	.	.
8e	-bout	.	.	.	.	.	.	.	.
8e	my	.	.	.	.	.	.	.	.
=64	=64	=64	=64	=64	=64	=64	=64	=64	=64
4f#	own	1r	.	1BM	.	voice	.	153.732	B:maj/b7
8d#	pro-	.	.	.	.	.	.	.	.
8c#	_	.	.	.	.	.	.	.	.
8c#	-tec-	.	.	.	.	.	(K	.	.
8B	-tion	.	.	.	.	.	k)	.	.
8r	.	.	.	.	.	.	.	.	.
8B	It	.	.	.	.	.	.	.	.
=65	=65	=65	=65	=65	=65	=65	=65	=65	=65
4f#	scares	1r	.	1G#mm	.	voice	.	156.187	G#:min7
8f#	me	.	.	.	.	.	.	.	.
8f#	to	.	.	.	.	.	.	.	.
8f#	think	.	.	.	.	.	.	.	.
4b	this	.	.	.	.	.	.	.	.
16g#	way	.	.	.	.	.	H	.	.
16f#	_	.	.	.	.	.	.	.	.
=66	=66	=66	=66	=66	=66	=66	=66	=66	=66
2g#	_	1r	.	1C#M	.	voice	.	158.641	C#:maj
4r	.	.	.	.	.	.	.	.	.
8cc#	Oh	.	.	.	.	.	.	.	.
8b#	_	.	.	.	.	.	.	.	.
=67	=67	=67	=67	=67	=67	=67	=67	=67	=67
*>Letter>C	*>Letter>C	*>Letter>C	*>Letter>C	*>Letter>C	*>Letter>C	*>Letter>C	*>Letter>C	*>Letter>C	*>Letter>C
*>Label>Chorus	*>Label>Chorus	*>Label>Chorus	*>Label>Chorus	*>Label>Chorus	*>Label>Chorus	*>Label>Chorus	*>Label>Chorus	*>Label>Chorus	*>Label>Chorus
*a#:	*	*a#:	*	*a#:	*	*	*	*	*a#:
8a#	_	1r	.	2A#m	newline	voice	.	161.096	C#:maj
8r	.	.	.	.	.	.	.	.	.
4cc#	What's	.	.	.	.	.	.	.	.
8b#	love	.	.	2G#M	.	voice	.	162.319	G#:maj
8a#	_	.	.	.	.	.	.	.	.
8g#	got	.	.	.	.	.	.	.	.
16e#	to	.	.	.	.	.	.	.	.
[16g#	do	.	.	.	.	.	.	.	.
=68	=68	=68	=68	=68	=68	=68	=68	=68	=68
8g#]	_	1r	.	2F#M	.	voice	.	163.543	F#:maj
8r	.	.	.	.	.	.	.	.	.
8g#	got	.	.	.	.	.	.	.	.
16e#	to	.	.	.	.	.	.	.	.
[16g#	do	.	.	.	.	.	.	.	.
16g#]	_	.	.	2G#M	.	voice	.	164.767	G#:maj
16g#	with	.	.	.	.	.	.	.	.
8g#	it?	.	.	.	.	.	.	.	.
4r	.	.	.	.	.	.	.	.	.
=69	=69	=69	=69	=69	=69	=69	=69	=69	=69
4r	.	1r	.	2A#m	.	voice	.	165.991	C#:maj
4cc#	What's	.	.	.	.	.	.	.	.
8b#	love	.	.	2G#M	.	voice	.	167.214	G#:maj
8a#	_	.	.	.	.	.	.	.	.
8r	.	.	.	.	.	.	.	.	.
16g#	but	.	.	.	.	.	.	.	.
16g#	a	.	.	.	.	.	.	.	.
=70	=70	=70	=70	=70	=70	=70	=70	=70	=70
8a#	se-	1r	.	2F#M	.	voice	.	168.438	F#:maj
8g#	-cond	.	.	.	.	.	.	.	.
8g#	hand	.	.	.	.	.	.	.	.
8a#	e-	.	.	.	.	.	.	.	.
4e#	-mo-	.	.	2G#M	.	voice	(F	169.662	G#:maj
16d#	-tion	.	.	.	.	.	f)	.	.
8.c#	_	.	.	.	.	.	.	.	.
=71	=71	=71	=71	=71	=71	=71	=71	=71	=71
4r	.	1r	.	2A#m	newline	voice	.	170.886	C#:maj
4cc#	What's	.	.	.	.	.	.	.	.
8b#	love	.	.	2G#M	.	voice	.	172.118	G#:maj
8a#	_	.	.	.	.	.	.	.	.
8g#	got	.	.	.	.	.	.	.	.
16e#	to	.	.	.	.	.	.	.	.
[16g#	do	.	.	.	.	.	.	.	.
=72	=72	=72	=72	=72	=72	=72	=72	=72	=72
8g#]	_	1r	.	2F#M	.	voice	.	173.35	F#:maj
8r	.	.	.	.	.	.	.	.	.
8g#	got	.	.	.	.	.	.	.	.
16e#	to	.	.	.	.	.	.	.	.
[16g#	do	.	.	.	.	.	.	.	.
16g#]	_	.	.	2G#M	.	voice	.	174.583	G#:maj
16g#	with	.	.	.	.	.	.	.	.
8g#	it?	.	.	.	.	.	.	.	.
4r	.	.	.	.	.	.	.	.	.
=73	=73	=73	=73	=73	=73	=73	=73	=73	=73
8.a#	Who	1r	.	2A#m	.	voice	.	175.815	C#:maj
8.g#	needs	.	.	.	.	.	.	.	.
8e#	a	.	.	.	.	.	.	.	.
8.a#	heart	.	.	2G#M	.	voice	.	177.047	G#:maj
8.g#	when	.	.	.	.	.	.	.	.
8e#	a	.	.	.	.	.	.	.	.
=74	=74	=74	=74	=74	=74	=74	=74	=74	=74
*M2/4	*	*M2/4	*	*M2/4	*M2/4	*M2/4	*	*M2/4	*M2/4
8.a#	heart	2r	.	2F#M	.	voice	.	178.279	F#:maj
8.g#	can	.	.	.	.	.	.	.	.
8e#	be	.	.	.	.	.	.	.	.
=75	=75	=75	=75	=75	=75	=75	=75	=75	=75
*M4/4	*	*M4/4	*	*M4/4	*M4/4	*M4/4	*	*M4/4	*M4/4
4a#	bro-	4r	.	2A#m	newline	voice	(F	179.512	C#:maj
16g#	-ken	4cc#	What's	.	.	.	f)	.	.
16a#	_	.	.	.	.	.	.	.	.
8r	.	.	.	.	.	.	.	.	.
4r	.	8b#	love	2G#M	.	voice	.	180.741	G#:maj
.	.	8a#	_	.	.	.	.	.	.
8g#	got	4r	.	.	.	.	.	.	.
16e#	to	.	.	.	.	.	.	.	.
[16g#	do	.	.	.	.	.	.	.	.
=76	=76	=76	=76	=76	=76	=76	=76	=76	=76
8g#]	_	4r	.	2F#M	.	voice	.	181.971	F#:maj
8r	.	.	.	.	.	.	.	.	.
8g#	got	8g#	got	.	.	.	.	.	.
16e#	to	16e#	to	.	.	.	.	.	.
[16g#	do	[16g#	do	.	.	.	.	.	.
16g#]	_	16g#]	_	2G#M	.	voice	.	183.2	G#:maj
16g#	with	16g#	with	.	.	.	.	.	.
8g#	it?	8g#	it?	.	.	.	.	.	.
4r	.	4r	.	.	.	.	.	.	.
=77	=77	=77	=77	=77	=77	=77	=77	=77	=77
4r	.	4r	.	2A#m	.	voice	.	184.43	C#:maj
8cc#	What's?	4cc#	What's	.	.	.	.	.	.
8cc#	_	.	.	.	.	.	.	.	.
4dd#	love	8b#	love	2G#M	.	voice	.	185.659	G#:maj
.	.	8a#	_	.	.	.	.	.	.
8r	.	4r	.	.	.	.	.	.	.
16g#	but	.	.	.	.	.	.	.	.
16g#	a	.	.	.	.	.	.	.	.
=78	=78	=78	=78	=78	=78	=78	=78	=78	=78
8a#	sweet	1r	.	2F#M	.	voice	.	186.889	F#:maj
8g#	old	.	.	.	.	.	.	.	.
8g#	fa-	.	.	.	.	.	.	.	.
8a#	-shion	.	.	.	.	.	.	.	.
4e#	no-	.	.	2G#M	.	voice	(F	188.118	G#:maj
16d#	-tion	.	.	.	.	.	f)	.	.
8.c#	_	.	.	.	.	.	.	.	.
=79	=79	=79	=79	=79	=79	=79	=79	=79	=79
4r	.	4r	.	2A#m	newline	voice	.	189.348	C#:maj
4cc#	What's	4cc#	What's	.	.	.	.	.	.
8b#	love	8b#	love	2G#M	.	voice	.	190.567	G#:maj
8a#	_	8a#	_	.	.	.	.	.	.
8g#	got	4r	.	.	.	.	.	.	.
16e#	to	.	.	.	.	.	.	.	.
[16a#	do	.	.	.	.	.	.	.	.
=80	=80	=80	=80	=80	=80	=80	=80	=80	=80
8a#]	_	4r	.	2F#M	.	voice	.	191.786	F#:maj
8r	.	.	.	.	.	.	.	.	.
8g#	got	8g#	got	.	.	.	.	.	.
16e#	to	16e#	to	.	.	.	.	.	.
[16g#	do	[16g#	do	.	.	.	.	.	.
16g#]	_	16g#]	_	2G#M	.	voice	.	193.005	G#:maj
16g#	with	16g#	with	.	.	.	.	.	.
8g#	it?	8g#	it?	.	.	.	.	.	.
4r	.	4r	.	.	.	.	.	.	.
=81	=81	=81	=81	=81	=81	=81	=81	=81	=81
8.a#	Who	1r	.	2A#m	.	voice	.	194.224	C#:maj
8.g#	needs	.	.	.	.	.	.	.	.
8e#	a	.	.	.	.	.	.	.	.
8a#	heart	.	.	2G#M	.	voice	.	195.443	G#:maj
8r	.	.	.	.	.	.	.	.	.
16r	.	.	.	.	.	.	.	.	.
16e#	when	.	.	.	.	.	.	.	.
16e#	a	.	.	.	.	.	.	.	.
16r	.	.	.	.	.	.	.	.	.
=82	=82	=82	=82	=82	=82	=82	=82	=82	=82
*M2/4	*	*M2/4	*	*M2/4	*M2/4	*M2/4	*	*M2/4	*M2/4
8.a#	heart	2r	.	2F#M	.	voice	.	196.661	F#:maj
8.g#	can	.	.	.	.	.	.	.	.
8e#	be	.	.	.	.	.	.	.	.
=83	=83	=83	=83	=83	=83	=83	=83	=83	=83
*M4/4	*	*M4/4	*	*M4/4	*M4/4	*M4/4	*	*M4/4	*M4/4
4a#	bro-	4r	.	2A#m	newline	voice	(F	197.88	C#:maj
16g#	-ken	4cc#	What's	.	.	.	f)	.	.
16e#	_	.	.	.	.	.	.	.	.
8r	.	.	.	.	.	.	.	.	.
2r	.	8b#	love	2G#M	.	voice	.	199.11	G#:maj
.	.	8r	.	.	.	.	.	.	.
.	.	8g#	got	.	.	.	.	.	.
.	.	16e#	to	.	.	.	.	.	.
.	.	[16g#	do	.	.	.	.	.	.
=84	=84	=84	=84	=84	=84	=84	=84	=84	=84
4r	.	8g#]	_	2F#M	.	voice	.	200.34	F#:maj
.	.	8r	.	.	.	.	.	.	.
4.cc#	Ooh	4r	.	.	.	.	.	.	.
.	.	2r	.	2G#M	.	voice	.	201.569	G#:maj
16a#	_	.	.	.	.	.	.	.	.
16r	.	.	.	.	.	.	.	.	.
8cc#	got	.	.	.	.	.	.	.	.
16a#	to	.	.	.	.	.	.	.	.
[16cc#	do	.	.	.	.	.	.	.	.
=85	=85	=85	=85	=85	=85	=85	=85	=85	=85
16cc#]	_	4r	.	2A#m	.	voice	.	202.799	C#:maj
16cc#	with	.	.	.	.	.	.	.	.
8a#	it?	.	.	.	.	.	.	.	.
4r	.	4cc#	What's	.	.	.	.	.	.
2r	.	4b#	love	2G#M	.	voice	.	204.029	G#:maj
.	.	8r	.	.	.	.	.	.	.
.	.	16g#	but	.	.	.	.	.	.
.	.	16g#	a	.	.	.	.	.	.
=86	=86	=86	=86	=86	=86	=86	=86	=86	=86
1r	.	8a#	se-	2F#M	.	voice	.	205.258	F#:maj
.	.	8g#	-cond	.	.	.	.	.	.
.	.	8g#	hand	.	.	.	.	.	.
.	.	8a#	e-	.	.	.	.	.	.
.	.	4e#	-mo-	2G#M	.	voice	(F	206.488	G#:maj
.	.	16d#	-tion	.	.	.	f)	.	.
.	.	8.c#	_	.	.	.	.	.	.
=87	=87	=87	=87	=87	=87	=87	=87	=87	=87
*>Label>>Fadeout	*>Label>>Fadeout	*>Label>>Fadeout	*>Label>>Fadeout	*>Label>>Fadeout	*>Label>>Fadeout	*>Label>>Fadeout	*>Label>>Fadeout	*>Label>>Fadeout	*>Label>>Fadeout
4r	.	1r	.	2A#m	newline	voice	.	207.717	C#:maj
4cc#	What's	.	.	.	.	.	.	.	.
8b#	love	.	.	2G#M	.	voice	.	208.941	G#:maj
8a#	_	.	.	.	.	.	.	.	.
8g#	got	.	.	.	.	.	.	.	.
16e#	to	.	.	.	.	.	.	.	.
[16g#	do	.	.	.	.	.	.	.	.
=88	=88	=88	=88	=88	=88	=88	=88	=88	=88
8g#]	_	1r	.	2F#M	.	voice	.	210.165	F#:maj
8r	.	.	.	.	.	.	.	.	.
8g#	got	.	.	.	.	.	.	.	.
16e#	to	.	.	.	.	.	.	.	.
[16g#	do	.	.	.	.	.	.	.	.
16g#]	_	.	.	2G#M	.	voice	.	211.389	G#:maj
16g#	with	.	.	.	.	.	.	.	.
8g#	it?	.	.	.	.	.	.	.	.
4r	.	.	.	.	.	.	.	.	.
=89	=89	=89	=89	=89	=89	=89	=89	=89	=89
8.a#	Who	1r	.	2A#m	.	voice	.	212.612	C#:maj
8.g#	takes	.	.	.	.	.	.	.	.
8e#	a	.	.	.	.	.	.	.	.
8.a#	heart	.	.	2G#M	.	voice	.	213.836	G#:maj
8g#	when	.	.	.	.	.	.	.	.
8e#	a	.	.	.	.	.	.	.	.
16r	.	.	.	.	.	.	.	.	.
=90	=90	=90	=90	=90	=90	=90	=90	=90	=90
*M2/4	*	*M2/4	*	*M2/4	*M2/4	*M2/4	*	*M2/4	*M2/4
8.a#	heart	2r	.	2F#M	.	voice	.	215.06	F#:maj
8.g#	can	.	.	.	.	.	.	.	.
8e#	be	.	.	.	.	.	.	.	.
=91	=91	=91	=91	=91	=91	=91	=91	=91	=91
*M4/4	*	*M4/4	*	*M4/4	*M4/4	*M4/4	*	*M4/4	*M4/4
4a#	bro-	4r	.	2A#m	newline	voice	(F	216.283	C#:maj
16g#	-ken	4cc#	What's	.	.	.	f)	.	.
16a#	_	.	.	.	.	.	.	.	.
8r	.	.	.	.	.	.	.	.	.
4r	.	8b#	love	2G#M	.	voice	.	217.494	G#:maj
.	.	8r	.	.	.	.	.	.	.
8ee	Ooh	4r	.	.	.	.	.	.	.
8dd#	_	.	.	.	.	.	.	.	.
=92	=92	=92	=92	=92	=92	=92	=92	=92	=92
16cc#	ooh	4r	.	2F#M	.	voice	.	218.704	F#:maj
16dd#	_	.	.	.	.	.	.	.	.
8r	.	.	.	.	.	.	.	.	.
4r	.	8g#	got	.	.	.	.	.	.
.	.	16e#	to	.	.	.	.	.	.
.	.	[16g#	do	.	.	.	.	.	.
4r	.	16g#]	_	2G#M	.	voice	.	219.914	G#:maj
.	.	16g#	with	.	.	.	.	.	.
.	.	8g#	it?	.	.	.	.	.	.
8cc#	got	4r	.	.	.	.	.	.	.
16a#	to	.	.	.	.	.	.	.	.
[16cc#	do	.	.	.	.	.	.	.	.
=93	=93	=93	=93	=93	=93	=93	=93	=93	=93
16cc#]	_	4r	.	2A#m	.	voice	.	221.125	C#:maj
16a#	with	.	.	.	.	.	.	.	.
8a#	it?	.	.	.	.	.	.	.	.
4r	.	4cc#	What's	.	.	.	.	.	.
4.r	.	8b#	love	2G#M	.	voice	.	222.335	G#:maj
.	.	8r	.	.	.	.	.	.	.
.	.	4r	.	.	.	.	.	.	.
16a#	but	.	.	.	.	.	.	.	.
16a#	a	.	.	.	.	.	.	.	.
=94	=94	=94	=94	=94	=94	=94	=94	=94	=94
8cc#	se-	1r	.	2F#M	.	voice	.	223.545	F#:maj
8a#	-cond	.	.	.	.	.	.	.	.
8a#	hand	.	.	.	.	.	.	.	.
8a#	e-	.	.	.	.	.	.	.	.
4cc#	-mo-	.	.	2G#M	.	voice	(F	224.755	G#:maj
4dd#	-tion	.	.	.	.	.	f)	.	.
r;	.	r;	.	1r;	.	r	.	226.873	N.C.
r;	.	r;	.	1r;	.	r	.	229.052	N.C.
*-	*-	*-	*-	*-	*-	*-	*-	*-	*-
!!!BillboardChartDate: 1984/09/29
!!!BillboardPeak: 1
!!!BillboardWeeksOnChart: 28
!!!COC: Tina Turner
!!!EMD: Changed staring key to G#m and added keychanges to C#M and A#m. Changed first chord of chord loop in chorus to minor i chord, instead of III. Removed extra measure in second verse. Nat Condit-Schultz 2017/01/13
!!!ENC: Nathaniel Condit-Schultz
!!!EST: Awating manual error checking and editing.
!!!OTL: What's Love Got To Do With It
!!!RDF**chordsym: original McGill chord annotation + (implied pitch class set, with bass pitch in first position)
!!!RDF**harmony: **recip + pitch class of root + harmonic quality
!!!RDF**leadinstrument: original McGill primary instrumentation annotation
!!!RDF**phrase: newline = linebreak in original McGill transcription
!!!RDF**timestamp: McGill audio timestamp in seconds
!!!RDT: 2017/01/12/
!!!SampleActualRank: 6
!!!SampleID#: 0150
!!!SampleTargetRank: 7
